X: 38450
T: Staten Island
R: hornpipe
M: 4/4
K: Gmajor
BA|:"G" G2GB d2 Bd|bc'ba g3d|"C" e2ce "G" d2Bd|"D" c2A2 A2BA|
"G"G2GB d2Bd|bc'ba g3d|"C"efg2 "D"abc'b|1 "G" a2g2 g2BA:|2 "G"a2g2 g2Bc||
|:"G"d2Bd c2Ac|B2GB A2DE|"F"=F2=F2 ABcA|=F2=F2 ABcA|
"G"d2Bd c2Ac|"Em"B2GB A2BA|"C"GF "Em"G2 AB (3cBA|1 "G" B2G2 G2Bc:|2 "G" B2G2 G2BA||

